public/images/lock_open_right.svg

<svg width="60" height="60" viewBox="0 0 60 60" fill="none" xmlns="http://www.w3.org/2000/svg">
<mask id="mask0_295_2401" style="mask-type:alpha" maskUnits="userSpaceOnUse" x="0" y="0" width="60" height="60">
<rect width="60" height="60" fill="#D9D9D9"/>
</mask>
<g mask="url(#mask0_295_2401)">
<path d="M14.5193 50.2308H42.9807C43.2051 50.2308 43.3894 50.1583 43.5337 50.0133C43.6779 49.8683 43.75 49.6831 43.75 49.4576V25.8757C43.75 25.6502 43.6779 25.465 43.5337 25.32C43.3894 25.175 43.2051 25.1025 42.9807 25.1025H14.5193C14.2949 25.1025 14.1106 25.175 13.9663 25.32C13.8221 25.465 13.7499 25.6502 13.7499 25.8757V49.4576C13.7499 49.6831 13.8221 49.8683 13.9663 50.0133C14.1106 50.1583 14.2949 50.2308 14.5193 50.2308ZM28.75 42.064C29.9647 42.064 30.9976 41.6364 31.8485 40.7811C32.6995 39.9258 33.1249 38.8876 33.1249 37.6666C33.1249 36.4457 32.6995 35.4075 31.8485 34.5522C30.9976 33.6969 29.9647 33.2693 28.75 33.2693C27.5352 33.2693 26.5024 33.6969 25.6515 34.5522C24.8005 35.4075 24.375 36.4457 24.375 37.6666C24.375 38.8876 24.8005 39.9258 25.6515 40.7811C26.5024 41.6364 27.5352 42.064 28.75 42.064ZM14.5193 54C13.2725 54 12.2076 53.5562 11.3246 52.6686C10.4415 51.7811 10 50.7107 10 49.4576V25.8757C10 24.6225 10.4415 23.5522 11.3246 22.6647C12.2076 21.7771 13.2725 21.3333 14.5193 21.3333H32.5001V16.3076C32.5001 13.1698 33.5946 10.5008 35.7837 8.30048C37.9728 6.10016 40.6283 5 43.75 5C46.8718 5 49.5272 6.10016 51.7164 8.30048C53.9055 10.5008 55 13.1698 55 16.3076H51.2501C51.2501 14.2136 50.5209 12.4337 49.0625 10.9679C47.6042 9.50203 45.8334 8.76912 43.75 8.76912C41.6667 8.76912 39.8959 9.50203 38.4375 10.9679C36.9792 12.4337 36.25 14.2136 36.25 16.3076V21.3333H42.9807C44.2275 21.3333 45.2924 21.7771 46.1754 22.6647C47.0585 23.5522 47.5 24.6225 47.5 25.8757V49.4576C47.5 50.7107 47.0585 51.7811 46.1754 52.6686C45.2924 53.5562 44.2275 54 42.9807 54H14.5193Z" fill="#A18129"/>
</g>
</svg>

<svg width="60" height="60" fill="none" xmlns="http://www.w3.org/2000/svg"><mask id="a" style="mask-type:alpha" maskUnits="userSpaceOnUse" x="0" y="0" width="60" height="60"><path fill="#D9D9D9" d="M0 0h60v60H0z"/></mask><g mask="url(#a)"><path d="M14.52 50.23h28.46a.747.747 0 0 0 .554-.217.755.755 0 0 0 .216-.555V25.876a.755.755 0 0 0-.216-.556.747.747 0 0 0-.553-.218H14.519a.747.747 0 0 0-.553.218.755.755 0 0 0-.216.556v23.582c0 .225.072.41.216.555a.747.747 0 0 0 .553.218zm14.23-8.166c1.215 0 2.248-.428 3.099-1.283.85-.855 1.276-1.893 1.276-3.114 0-1.221-.425-2.26-1.276-3.115-.851-.855-1.884-1.283-3.099-1.283-1.215 0-2.248.428-3.099 1.283-.85.855-1.276 1.894-1.276 3.115 0 1.22.425 2.259 1.276 3.114s1.884 1.283 3.099 1.283zM14.52 54c-1.247 0-2.312-.444-3.195-1.331C10.442 51.78 10 50.71 10 49.458V25.876c0-1.254.441-2.324 1.325-3.211.883-.888 1.948-1.332 3.194-1.332H32.5v-5.025c0-3.138 1.095-5.807 3.284-8.008C37.973 6.1 40.628 5 43.75 5s5.777 1.1 7.966 3.3C53.906 10.5 55 13.17 55 16.308h-3.75c0-2.094-.73-3.874-2.188-5.34-1.458-1.466-3.229-2.199-5.312-2.199s-3.854.733-5.313 2.199c-1.458 1.466-2.187 3.246-2.187 5.34v5.025h6.73c1.248 0 2.312.444 3.195 1.332.884.887 1.325 1.957 1.325 3.21v23.583c0 1.253-.441 2.323-1.325 3.21-.883.888-1.947 1.332-3.194 1.332H14.519z" fill="#A18129"/></g></svg>
